X: 1
T: the Rogue's March
P: piffero primo a0778
O: Bruce & Emmett
%R: jig, march
F: http://ancients.sudburymuster.org/mus/sng/pdf/roguesmarchC0.pdf
Z: 2020 John Chambers <jc:trillian.mit.edu>
M: 6/8
L: 1/8
K: G
z |\
g3 f3 | e3 d3 | g3 f3 | e3 d2 |: G |\
B2B Bcd | e2e e3 | d2d d2e | d3 B3 |\
B2B Bcd | e2e e3 | def g2B | A3 "^DC"G2 :|
